X:0048
T:Major's Maggot.
T:Major's Maggat.
N:second title is as in the index
M:6/8
L:1/8
Q:3/8=120
I: :: ::
Z:Jack Campin * www.campin.me.uk * 2009
K:A Mixolydian
a3  efg|f3  efg|a2a agf|ecA cec |
a3  efg|f3  def|g2g gfe|dBG BdB:|
cde A2e|c2a e2d|cde A2g|dBG BdB |
cde A2e|c2a e2f|g2g gfe|dBG BdB:|
<end>
<start>
